X:127
T:La Morisque
C:Susato
S:Bear Sessions
M:4/4
L:1/4
K:G
D|:B/2c/2 dde | d3c |B GGA | F2D2 |
 |B/2c/2 dde |d3c |B GGA |1 G3 D:|2 G3 A |
 |:BGGA|BGcA|BGGA|F2D2|
 | BGGA|BGcA|BGGA|1G3 A :|2G3 D|
